X:14
T:Women's work will never be done
Z:Jack Campin - http://www.campin.me.uk
S:Blaikie MS (NLS MS.1578) p5, Blaikie #13
M:C
L:1/8
V:1 midi program 1 74
V:2 midi program 1 46 bass middle = d transpose -24
Q:1/4=120
K:E Minor
[V:1] B,2D2 D3 E|D>EDB, D2D2|B,2E2 E2GA|B2AG E3 E|
[V:2] G2 g2 G2g2|G2 g2  b2g2|g2 G2 g2e2|b2B2 e2z2|
%
[V:1] B,2D2 D3 E|DE`DB, D2G2|GD`ED G2AB|dBAG E4 ||
[V:2] G2 g2 G2g2|G2 g2  G2z2|b2 g2 b2ag|b2B2 e4 ||
%
[V:1] G2 AB d3 e|dBAB   d4  |A2 Bd e3 f|edgf e3 d|
[V:2] G2 g2 G2g2|G2g2   b2g2|f2 g2 c2z2|G2g2 G2g2|
%
[V:1] d2 ef g3 e|dc`BA  G3 B|AB`de dBAB|A3 G E4 |]
[V:2] B2 c2 B2c2|d2^d2  e2z2|d2 z2 g2z2|b2B2 e4 |]

W:Transcription (c) Jack Campin 2009, no mirroring or republication without permission

